src/icons/mainwindow/properties.svg

<?xml version="1.0" encoding="UTF-8" standalone="no"?>
<!DOCTYPE svg PUBLIC "-//W3C//DTD SVG 1.1//EN" "http://www.w3.org/Graphics/SVG/1.1/DTD/svg11.dtd">
<svg width="100%" height="100%" viewBox="0 0 22 22" version="1.1" xmlns="http://www.w3.org/2000/svg" xmlns:xlink="http://www.w3.org/1999/xlink" xml:space="preserve" xmlns:serif="http://www.serif.com/" style="fill-rule:evenodd;clip-rule:evenodd;stroke-linejoin:round;stroke-miterlimit:2;">
    <g id="Capa-1" serif:id="Capa 1" transform="matrix(1,0,0,1,0,-1030.36)">
        <path id="path3103" d="M5,1032.36L2,1035.36L2,1049.36L5,1052.36L17,1052.36L20,1049.36L20,1035.36L17,1032.36L5,1032.36ZM6,1034.36L16,1034.36L18,1036.36L18,1048.36L16,1050.36L6,1050.36L4,1048.36L4,1036.36L6,1034.36ZM11,1036.36L10,1037.36L10,1038.36L9,1039.36L8,1038.36L7,1038.36L7,1039.36L8,1040.36L7,1041.36L6,1041.36L5,1042.36L6,1043.36L7,1043.36L8,1044.36L7,1045.36L7,1046.36L8,1046.36L9,1045.36L10,1046.36L10,1047.36L11,1048.36L12,1047.36L12,1046.36L13,1045.36L14,1046.36L15,1046.36L15,1045.36L14,1044.36L15,1043.36L16,1043.36L17,1042.36L16,1041.36L15,1041.36L14,1040.36L15,1039.36L15,1038.36L14,1038.36L13,1039.36L12,1038.36L12,1037.36L11,1036.36ZM10,1040.36L12,1040.36L13,1041.36L13,1043.36L12,1044.36L10,1044.36L9,1043.36L9,1041.36L10,1040.36Z" style="fill:white;fill-opacity:0.6;fill-rule:nonzero;"/>
        <clipPath id="_clip1">
            <path id="path3082" d="M5,1031.36L2,1034.36L2,1048.36L5,1051.36L17,1051.36L20,1048.36L20,1034.36L17,1031.36L5,1031.36ZM6,1033.36L16,1033.36L18,1035.36L18,1047.36L16,1049.36L6,1049.36L4,1047.36L4,1035.36L6,1033.36ZM11,1035.36L10,1036.36L10,1037.36L9,1038.36L8,1037.36L7,1037.36L7,1038.36L8,1039.36L7,1040.36L6,1040.36L5,1041.36L6,1042.36L7,1042.36L8,1043.36L7,1044.36L7,1045.36L8,1045.36L9,1044.36L10,1045.36L10,1046.36L11,1047.36L12,1046.36L12,1045.36L13,1044.36L14,1045.36L15,1045.36L15,1044.36L14,1043.36L15,1042.36L16,1042.36L17,1041.36L16,1040.36L15,1040.36L14,1039.36L15,1038.36L15,1037.36L14,1037.36L13,1038.36L12,1037.36L12,1036.36L11,1035.36ZM10,1039.36L12,1039.36L13,1040.36L13,1042.36L12,1043.36L10,1043.36L9,1042.36L9,1040.36L10,1039.36Z" clip-rule="nonzero"/>
        </clipPath>
        <g clip-path="url(#_clip1)">
            <g opacity="0.7">
                <path d="M5,1031.36L2,1034.36L2,1048.36L5,1051.36L17,1051.36L20,1048.36L20,1034.36L17,1031.36L5,1031.36ZM6,1033.36L16,1033.36L18,1035.36L18,1047.36L16,1049.36L6,1049.36L4,1047.36L4,1035.36L6,1033.36ZM11,1035.36L10,1036.36L10,1037.36L9,1038.36L8,1037.36L7,1037.36L7,1038.36L8,1039.36L7,1040.36L6,1040.36L5,1041.36L6,1042.36L7,1042.36L8,1043.36L7,1044.36L7,1045.36L8,1045.36L9,1044.36L10,1045.36L10,1046.36L11,1047.36L12,1046.36L12,1045.36L13,1044.36L14,1045.36L15,1045.36L15,1044.36L14,1043.36L15,1042.36L16,1042.36L17,1041.36L16,1040.36L15,1040.36L14,1039.36L15,1038.36L15,1037.36L14,1037.36L13,1038.36L12,1037.36L12,1036.36L11,1035.36ZM10,1039.36L12,1039.36L13,1040.36L13,1042.36L12,1043.36L10,1043.36L9,1042.36L9,1040.36L10,1039.36Z" style="fill-rule:nonzero;"/>
                <clipPath id="_clip2">
                    <path d="M5,1031.36L2,1034.36L2,1048.36L5,1051.36L17,1051.36L20,1048.36L20,1034.36L17,1031.36L5,1031.36ZM6,1033.36L16,1033.36L18,1035.36L18,1047.36L16,1049.36L6,1049.36L4,1047.36L4,1035.36L6,1033.36ZM11,1035.36L10,1036.36L10,1037.36L9,1038.36L8,1037.36L7,1037.36L7,1038.36L8,1039.36L7,1040.36L6,1040.36L5,1041.36L6,1042.36L7,1042.36L8,1043.36L7,1044.36L7,1045.36L8,1045.36L9,1044.36L10,1045.36L10,1046.36L11,1047.36L12,1046.36L12,1045.36L13,1044.36L14,1045.36L15,1045.36L15,1044.36L14,1043.36L15,1042.36L16,1042.36L17,1041.36L16,1040.36L15,1040.36L14,1039.36L15,1038.36L15,1037.36L14,1037.36L13,1038.36L12,1037.36L12,1036.36L11,1035.36ZM10,1039.36L12,1039.36L13,1040.36L13,1042.36L12,1043.36L10,1043.36L9,1042.36L9,1040.36L10,1039.36Z" clip-rule="nonzero"/>
                </clipPath>
                <g clip-path="url(#_clip2)">
                    <g transform="matrix(1,0,0,1,0,1030.36)">
                        <path d="M5,1L17,1L20,4L20,18L17,21L5,21L2,18L2,4L5,1ZM6,3L4,5L4,17L6,19L16,19L18,17L18,5L16,3L6,3Z" style="fill:white;"/>
                    </g>
                    <g transform="matrix(1,0,0,1,0,1030.36)">
                        <path d="M11,5L12,6L12,7L13,8L14,7L15,7L15,8L14,9L15,10L16,10L17,11L16,12L15,12L14,13L15,14L15,15L14,15L13,14L12,15L12,16L11,17L10,16L10,15L9,14L8,15L7,15L7,14L8,13L7,12L6,12L5,11L6,10L7,10L8,9L7,8L7,7L8,7L9,8L10,7L10,6L11,5ZM10,9L9,10L9,12L10,13L12,13L13,12L13,10L12,9L10,9Z" style="fill:white;"/>
                    </g>
                </g>
            </g>
        </g>
    </g>
</svg>

<?xml version="1.0" encoding="UTF-8" standalone="no"?>
<!-- Created with Inkscape (http://www.inkscape.org/) -->

<svg
   xmlns:dc="http://purl.org/dc/elements/1.1/"
   xmlns:cc="http://creativecommons.org/ns#"
   xmlns:rdf="http://www.w3.org/1999/02/22-rdf-syntax-ns#"
   xmlns:svg="http://www.w3.org/2000/svg"
   xmlns="http://www.w3.org/2000/svg"
   xmlns:sodipodi="http://sodipodi.sourceforge.net/DTD/sodipodi-0.dtd"
   xmlns:inkscape="http://www.inkscape.org/namespaces/inkscape"
   width="22"
   height="22"
   id="svg6662"
   version="1.1"
   inkscape:version="0.92.5 (2060ec1f9f, 2020-04-08)"
   sodipodi:docname="properties.svg">
  <defs
     id="defs6664">
    <linearGradient
       y2="11.02436"
       y1="3.0069399"
       x2="0"
       id="linearGradient1022-8-8-3-0-06-59"
       gradientUnits="userSpaceOnUse">
      <stop
         id="stop3001-0-9-4-9-02"
         offset="0" />
      <stop
         id="stop3003-5-6-6-5-70"
         stop-color="#363636"
         offset="1" />
    </linearGradient>
  </defs>
  <sodipodi:namedview
     id="base"
     pagecolor="#ffffff"
     bordercolor="#666666"
     borderopacity="1.0"
     inkscape:pageopacity="0.0"
     inkscape:pageshadow="2"
     inkscape:zoom="22.4"
     inkscape:cx="4.8136237"
     inkscape:cy="13.624267"
     inkscape:document-units="px"
     inkscape:current-layer="capa1"
     showgrid="true"
     inkscape:showpageshadow="false"
     inkscape:window-width="1920"
     inkscape:window-height="1049"
     inkscape:window-x="1920"
     inkscape:window-y="0"
     inkscape:window-maximized="1"
     inkscape:snap-bbox="true">
    <inkscape:grid
       type="xygrid"
       id="grid3199"
       empspacing="5"
       visible="true"
       enabled="true"
       snapvisiblegridlinesonly="true" />
  </sodipodi:namedview>
  <metadata
     id="metadata6667">
    <rdf:RDF>
      <cc:Work
         rdf:about="">
        <dc:format>image/svg+xml</dc:format>
        <dc:type
           rdf:resource="http://purl.org/dc/dcmitype/StillImage" />
        <dc:title />
      </cc:Work>
    </rdf:RDF>
  </metadata>
  <g
     inkscape:label="Capa 1"
     inkscape:groupmode="layer"
     id="capa1"
     transform="translate(0,-1030.3622)">
    <path
       id="path3103"
       d="m 5,1032.3622 -3,3 0,14 3,3 12,0 3,-3 0,-14 -3,-3 -12,0 z m 1,2 10,0 2,2 0,12 -2,2 -10,0 -2,-2 0,-12 2,-2 z m 5,2 -1,1 0,1 -1,1 -1,-1 -1,0 0,1 1,1 -1,1 -1,0 -1,1 1,1 1,0 1,1 -1,1 0,1 1,0 1,-1 1,1 0,1 1,1 1,-1 0,-1 1,-1 1,1 1,0 0,-1 -1,-1 1,-1 1,0 1,-1 -1,-1 -1,0 -1,-1 1,-1 0,-1 -1,0 -1,1 -1,-1 0,-1 -1,-1 z m -1,4 2,0 1,1 0,2 -1,1 -2,0 -1,-1 0,-2 1,-1 z"
       style="opacity:0.6;color:black;fill:white;fill-opacity:1;fill-rule:nonzero;stroke:none;stroke-width:0.66666675;marker:none;visibility:visible;display:inline;overflow:visible;enable-background:accumulate"
       inkscape:connector-curvature="0" />
    <path
       style="opacity:0.7;color:black;fill:#000000;fill-opacity:1;fill-rule:nonzero;stroke:none;stroke-width:1;marker:none;visibility:visible;display:inline;overflow:visible;enable-background:accumulate"
       d="m 5,1031.3622 -3,3 0,14 3,3 12,0 3,-3 0,-14 -3,-3 -12,0 z m 1,2 10,0 2,2 0,12 -2,2 -10,0 -2,-2 0,-12 2,-2 z m 5,2 -1,1 0,1 -1,1 -1,-1 -1,0 0,1 1,1 -1,1 -1,0 -1,1 1,1 1,0 1,1 -1,1 0,1 1,0 1,-1 1,1 0,1 1,1 1,-1 0,-1 1,-1 1,1 1,0 0,-1 -1,-1 1,-1 1,0 1,-1 -1,-1 -1,0 -1,-1 1,-1 0,-1 -1,0 -1,1 -1,-1 0,-1 -1,-1 z m -1,4 2,0 1,1 0,2 -1,1 -2,0 -1,-1 0,-2 1,-1 z"
       id="path3082"
       inkscape:connector-curvature="0" />
  </g>
</svg>
